X: 28061
T: Mr Benn's
R: hornpipe
M: 4/4
K: Gmajor
(3E^D|:DG Bd ^cc (3cde|dB GD ^CC (3CDE|DB ^Ac (3B=AG (3Bde|=f2f2 (3=zGA (3Bcd|
[1 e^d eG AA (3ABc|d2 B2 G2 zB|(3ABA (3GFG A2 ze|(3ded (3cdc (3BcB (3AFE:|
[2 e^d ed (3ede (3c=de|d^c (3dc=c BB (3zcd|ee (3cde dd FF|(3GBd (3^cdg (3GBd (3AFE||

